src/svg/size_ver.svg

<?xml version="1.0" encoding="UTF-8" standalone="no"?>
<svg
   xmlns:dc="http://purl.org/dc/elements/1.1/"
   xmlns:cc="http://creativecommons.org/ns#"
   xmlns:rdf="http://www.w3.org/1999/02/22-rdf-syntax-ns#"
   xmlns:svg="http://www.w3.org/2000/svg"
   xmlns="http://www.w3.org/2000/svg"
   xmlns:sodipodi="http://sodipodi.sourceforge.net/DTD/sodipodi-0.dtd"
   xmlns:inkscape="http://www.inkscape.org/namespaces/inkscape"
   width="32"
   height="32"
   version="1.1"
   viewBox="0 0 32 32"
   id="svg23"
   sodipodi:docname="size_ver.svg"
   inkscape:version="0.92.4 5da689c313, 2019-01-14">
  <metadata
     id="metadata27">
    <rdf:RDF>
      <cc:Work
         rdf:about="">
        <dc:format>image/svg+xml</dc:format>
        <dc:type
           rdf:resource="http://purl.org/dc/dcmitype/StillImage" />
      </cc:Work>
    </rdf:RDF>
  </metadata>
  <sodipodi:namedview
     pagecolor="#ffffff"
     bordercolor="#666666"
     borderopacity="1"
     objecttolerance="10"
     gridtolerance="10"
     guidetolerance="10"
     inkscape:pageopacity="0"
     inkscape:pageshadow="2"
     inkscape:window-width="1366"
     inkscape:window-height="696"
     id="namedview25"
     showgrid="true"
     inkscape:zoom="20.85965"
     inkscape:cx="-12.75721"
     inkscape:cy="9.295994"
     inkscape:window-x="0"
     inkscape:window-y="36"
     inkscape:window-maximized="1"
     inkscape:current-layer="svg23">
    <inkscape:grid
       type="xygrid"
       id="grid855" />
  </sodipodi:namedview>
  <defs
     id="defs5">
    <filter
       id="a"
       x="-.4097"
       y="-.16971"
       width="1.8194"
       height="1.3394"
       color-interpolation-filters="sRGB">
      <feGaussianBlur
         stdDeviation="1.2071175"
         id="feGaussianBlur2" />
    </filter>
    <filter
       inkscape:collect="always"
       style="color-interpolation-filters:sRGB"
       id="filter926"
       x="-0.25843855"
       width="1.5168771"
       y="-0.078141637"
       height="1.1562833">
      <feGaussianBlur
         inkscape:collect="always"
         stdDeviation="0.97679886"
         id="feGaussianBlur928" />
    </filter>
  </defs>
  <path
     style="color:#000000;font-style:normal;font-variant:normal;font-weight:normal;font-stretch:normal;font-size:medium;line-height:normal;font-family:sans-serif;font-variant-ligatures:normal;font-variant-position:normal;font-variant-caps:normal;font-variant-numeric:normal;font-variant-alternates:normal;font-feature-settings:normal;text-indent:0;text-align:start;text-decoration:none;text-decoration-line:none;text-decoration-style:solid;text-decoration-color:#000000;letter-spacing:normal;word-spacing:normal;text-transform:none;writing-mode:lr-tb;direction:ltr;text-orientation:mixed;dominant-baseline:auto;baseline-shift:baseline;text-anchor:start;white-space:normal;shape-padding:0;clip-rule:nonzero;display:inline;overflow:visible;visibility:visible;opacity:0.35;isolation:auto;mix-blend-mode:normal;color-interpolation:sRGB;color-interpolation-filters:linearRGB;solid-color:#000000;solid-opacity:1;vector-effect:none;fill:#000000;fill-opacity:1;fill-rule:nonzero;stroke:none;stroke-width:2;stroke-linecap:round;stroke-linejoin:round;stroke-miterlimit:4;stroke-dasharray:none;stroke-dashoffset:0;stroke-opacity:1;paint-order:stroke fill markers;color-rendering:auto;image-rendering:auto;shape-rendering:auto;text-rendering:auto;enable-background:accumulate;filter:url(#filter926)"
     d="M 16.003906 1 A 1.0001 1.0001 0 0 0 15.066406 1.640625 L 11.53125 10.833984 A 1.0001 1.0001 0 0 0 11.757812 11.900391 L 13.173828 13.316406 A 1.0001 1.0001 0 0 0 14.373047 13.480469 A 3 3 0 0 0 13 16 A 3 3 0 0 0 14.392578 18.529297 A 1.0001 1.0001 0 0 0 13.175781 18.681641 L 11.757812 20.099609 A 1.0001 1.0001 0 0 0 11.53125 21.166016 L 15.066406 30.359375 A 1.0001 1.0001 0 0 0 16.933594 30.359375 L 20.46875 21.166016 A 1.0001 1.0001 0 0 0 20.535156 20.773438 A 1.0001 1.0001 0 0 0 20.242188 20.099609 L 18.826172 18.683594 A 1.0001 1.0001 0 0 0 17.626953 18.519531 A 3 3 0 0 0 19 16 A 3 3 0 0 0 17.607422 13.470703 A 1.0001 1.0001 0 0 0 18.824219 13.318359 L 20.242188 11.900391 A 1.0001 1.0001 0 0 0 20.535156 11.177734 A 1.0001 1.0001 0 0 0 20.46875 10.833984 L 16.933594 1.640625 A 1.0001 1.0001 0 0 0 16.003906 1 z M 16 4.7871094 L 18.369141 10.945312 L 17.796875 11.517578 C 17.212226 11.283884 16.636903 11.00129 16.001953 11 A 1.0001 1.0001 0 0 0 16 11 C 15.364751 11.000483 14.788297 11.284419 14.203125 11.517578 L 13.630859 10.945312 L 16 4.7871094 z M 15.640625 13.025391 A 3 3 0 0 0 15.552734 13.035156 C 15.581892 13.030725 15.611314 13.028962 15.640625 13.025391 z M 16.386719 13.029297 C 16.409633 13.032346 16.432258 13.035487 16.455078 13.039062 A 3 3 0 0 0 16.386719 13.029297 z M 14.806641 13.25 A 3 3 0 0 0 14.753906 13.273438 C 14.771415 13.26541 14.788994 13.257683 14.806641 13.25 z M 17.246094 18.726562 C 17.228606 18.734583 17.210984 18.742323 17.193359 18.75 A 3 3 0 0 0 17.246094 18.726562 z M 15.162109 18.876953 A 3 3 0 0 0 15.216797 18.892578 C 15.198491 18.887561 15.180317 18.882317 15.162109 18.876953 z M 15.521484 18.957031 A 3 3 0 0 0 15.634766 18.974609 C 15.596733 18.969822 15.559257 18.963266 15.521484 18.957031 z M 16.451172 18.964844 C 16.420099 18.969603 16.38867 18.970827 16.357422 18.974609 A 3 3 0 0 0 16.451172 18.964844 z M 14.203125 20.482422 C 14.787774 20.716116 15.363097 20.99871 15.998047 21 A 1.0001 1.0001 0 0 0 16 21 C 16.635199 20.999517 17.211703 20.715581 17.796875 20.482422 L 18.369141 21.054688 L 16 27.212891 L 13.630859 21.054688 L 14.203125 20.482422 z "
     id="path857" />
  <path
     style="color:#000000;font-style:normal;font-variant:normal;font-weight:normal;font-stretch:normal;font-size:medium;line-height:normal;font-family:sans-serif;font-variant-ligatures:normal;font-variant-position:normal;font-variant-caps:normal;font-variant-numeric:normal;font-variant-alternates:normal;font-feature-settings:normal;text-indent:0;text-align:start;text-decoration:none;text-decoration-line:none;text-decoration-style:solid;text-decoration-color:#000000;letter-spacing:normal;word-spacing:normal;text-transform:none;writing-mode:lr-tb;direction:ltr;text-orientation:mixed;dominant-baseline:auto;baseline-shift:baseline;text-anchor:start;white-space:normal;shape-padding:0;clip-rule:nonzero;display:inline;overflow:visible;visibility:visible;opacity:1;isolation:auto;mix-blend-mode:normal;color-interpolation:sRGB;color-interpolation-filters:linearRGB;solid-color:#000000;solid-opacity:1;vector-effect:none;fill:#ffffff;fill-opacity:1;fill-rule:nonzero;stroke:none;stroke-width:2;stroke-linecap:round;stroke-linejoin:round;stroke-miterlimit:4;stroke-dasharray:none;stroke-dashoffset:0;stroke-opacity:1;paint-order:stroke fill markers;color-rendering:auto;image-rendering:auto;shape-rendering:auto;text-rendering:auto;enable-background:accumulate"
     d="m 20.535002,11.177735 a 1.0001,1.0001 0 0 0 -0.06641,-0.34375 L 16.933436,1.6406245 a 1.0001,1.0001 0 0 0 -1.867188,0 l -3.535156,9.1933605 a 1.0001,1.0001 0 0 0 0.226562,1.066407 l 1.416016,1.416015 a 1.0001,1.0001 0 0 0 1.238281,0.140625 c 0.476566,-0.298279 1.025683,-0.456603 1.587895,-0.457031 0.561191,0.0015 1.110492,0.160793 1.585938,0.458984 a 1.0001,1.0001 0 0 0 1.238281,-0.140625 l 1.417969,-1.417968 a 1.0001,1.0001 0 0 0 0.292968,-0.722657 z m 0,9.595704 A 1.0001,1.0001 0 0 0 20.242034,20.09961 L 18.826018,18.683595 A 1.0001,1.0001 0 0 0 17.587737,18.54297 c -0.476021,0.29794 -1.024391,0.456245 -1.585938,0.457031 -0.561856,-0.0011 -1.111904,-0.160454 -1.587891,-0.458984 a 1.0001,1.0001 0 0 0 -1.238281,0.140625 l -1.417969,1.417968 a 1.0001,1.0001 0 0 0 -0.226562,1.066407 l 3.535156,9.193359 a 1.0001,1.0001 0 0 0 1.867188,0 l 3.535156,-9.193359 a 1.0001,1.0001 0 0 0 0.06641,-0.392578 z m -2.166015,-9.828126 -0.572266,0.572266 c -0.584649,-0.233694 -1.159972,-0.516288 -1.794922,-0.517578 a 1.0001,1.0001 0 0 0 -0.002,0 c -0.635249,4.83e-4 -1.211703,0.284419 -1.796875,0.517578 l -0.572266,-0.572266 2.369141,-6.1582041 z m 0,10.109376 -2.369141,6.158203 -2.369141,-6.158203 0.572266,-0.572266 c 0.584649,0.233694 1.159972,0.516288 1.794922,0.517578 a 1.0001,1.0001 0 0 0 0.002,0 c 0.635199,-4.83e-4 1.211653,-0.284419 1.796825,-0.517578 z"
     id="path873"
     inkscape:connector-curvature="0" />
  <circle
     r="3"
     cy="-16"
     cx="16"
     id="circle866"
     style="opacity:1;fill:#ffffff;fill-opacity:1;stroke:none;stroke-width:6;stroke-linecap:round;stroke-linejoin:round;stroke-miterlimit:4;stroke-dasharray:none;stroke-opacity:1;paint-order:stroke fill markers"
     transform="rotate(90)" />
  <path
     inkscape:connector-curvature="0"
     style="opacity:1;fill:#333333;fill-opacity:1;stroke:none;stroke-width:1.99273682;stroke-linecap:round;stroke-linejoin:round;stroke-miterlimit:4;stroke-dasharray:none;stroke-opacity:1;paint-order:stroke fill markers"
     d="M 19.535156,11.193359 16,1.9999998 12.464844,11.193359 13.880859,12.609375 A 4,4 0 0 1 16,12 a 4,4 0 0 1 2.117188,0.611328 z m 0,9.613282 -1.416015,-1.416016 A 4,4 0 0 1 16,20 4,4 0 0 1 13.882812,19.388672 L 12.464844,20.806641 16,30 Z"
     id="rect835" />
  <circle
     style="opacity:1;fill:#1976d2;fill-opacity:1;stroke:none;stroke-width:4;stroke-linecap:round;stroke-linejoin:round;stroke-miterlimit:4;stroke-dasharray:none;stroke-opacity:1;paint-order:stroke fill markers"
     id="path851"
     cx="16"
     cy="-16"
     r="2"
     transform="rotate(90)" />
</svg>

<svg xmlns="http://www.w3.org/2000/svg" width="32" height="32" viewBox="0 0 32 32">
  <defs>
    <filter style="color-interpolation-filters:sRGB" id="a" x="-.258" width="1.517" y="-.078" height="1.156">
      <feGaussianBlur stdDeviation=".977"/>
    </filter>
  </defs>
  <path style="color:#000;font-style:normal;font-variant:normal;font-weight:400;font-stretch:normal;font-size:medium;line-height:normal;font-family:sans-serif;font-variant-ligatures:normal;font-variant-position:normal;font-variant-caps:normal;font-variant-numeric:normal;font-variant-alternates:normal;font-feature-settings:normal;text-indent:0;text-align:start;text-decoration:none;text-decoration-line:none;text-decoration-style:solid;text-decoration-color:#000;letter-spacing:normal;word-spacing:normal;text-transform:none;writing-mode:lr-tb;direction:ltr;text-orientation:mixed;dominant-baseline:auto;baseline-shift:baseline;text-anchor:start;white-space:normal;shape-padding:0;clip-rule:nonzero;display:inline;overflow:visible;visibility:visible;opacity:.35;isolation:auto;mix-blend-mode:normal;color-interpolation:sRGB;color-interpolation-filters:linearRGB;solid-color:#000;solid-opacity:1;vector-effect:none;fill:#000;fill-opacity:1;fill-rule:nonzero;stroke:none;stroke-width:2;stroke-linecap:round;stroke-linejoin:round;stroke-miterlimit:4;stroke-dasharray:none;stroke-dashoffset:0;stroke-opacity:1;paint-order:stroke fill markers;color-rendering:auto;image-rendering:auto;shape-rendering:auto;text-rendering:auto;enable-background:accumulate;filter:url(#a)" d="M16.004 1a1 1 0 0 0-.938.64l-3.535 9.194a1 1 0 0 0 .227 1.066l1.416 1.416a1 1 0 0 0 1.199.164A3 3 0 0 0 13 16a3 3 0 0 0 1.393 2.53 1 1 0 0 0-1.217.152L11.758 20.1a1 1 0 0 0-.227 1.066l3.535 9.193a1 1 0 0 0 1.868 0l3.535-9.193a1 1 0 0 0 .066-.393 1 1 0 0 0-.293-.673l-1.416-1.416a1 1 0 0 0-1.199-.164A3 3 0 0 0 19 16a3 3 0 0 0-1.393-2.53 1 1 0 0 0 1.217-.152l1.418-1.418a1 1 0 0 0 .293-.722 1 1 0 0 0-.066-.344l-3.535-9.193a1 1 0 0 0-.93-.641M16 4.787l2.37 6.158-.573.573c-.585-.234-1.16-.517-1.795-.518H16c-.635 0-1.212.284-1.797.518l-.572-.573zm-.36 8.238-.087.01zm.747.004.068.01zm-1.58.221-.053.023zm2.44 5.477-.054.023zm-2.085.15.055.016zm.36.08.113.018zm.93.008q-.047.006-.095.01zm-2.249 1.517c.585.234 1.16.517 1.795.518H16c.635 0 1.212-.284 1.797-.518l.572.573L16 27.213l-2.37-6.158z"/>
  <path style="color:#000;font-style:normal;font-variant:normal;font-weight:400;font-stretch:normal;font-size:medium;line-height:normal;font-family:sans-serif;font-variant-ligatures:normal;font-variant-position:normal;font-variant-caps:normal;font-variant-numeric:normal;font-variant-alternates:normal;font-feature-settings:normal;text-indent:0;text-align:start;text-decoration:none;text-decoration-line:none;text-decoration-style:solid;text-decoration-color:#000;letter-spacing:normal;word-spacing:normal;text-transform:none;writing-mode:lr-tb;direction:ltr;text-orientation:mixed;dominant-baseline:auto;baseline-shift:baseline;text-anchor:start;white-space:normal;shape-padding:0;clip-rule:nonzero;display:inline;overflow:visible;visibility:visible;opacity:1;isolation:auto;mix-blend-mode:normal;color-interpolation:sRGB;color-interpolation-filters:linearRGB;solid-color:#000;solid-opacity:1;vector-effect:none;fill:#d3c6aa;fill-opacity:1;fill-rule:nonzero;stroke:none;stroke-width:2;stroke-linecap:round;stroke-linejoin:round;stroke-miterlimit:4;stroke-dasharray:none;stroke-dashoffset:0;stroke-opacity:1;paint-order:stroke fill markers;color-rendering:auto;image-rendering:auto;shape-rendering:auto;text-rendering:auto;enable-background:accumulate" d="M20.535 11.178a1 1 0 0 0-.066-.344l-3.536-9.193a1 1 0 0 0-1.867 0l-3.535 9.193a1 1 0 0 0 .227 1.066l1.416 1.416a1 1 0 0 0 1.238.141A3 3 0 0 1 16 13a3 3 0 0 1 1.586.459 1 1 0 0 0 1.238-.14l1.418-1.419a1 1 0 0 0 .293-.722m0 9.595a1 1 0 0 0-.293-.673l-1.416-1.416a1 1 0 0 0-1.238-.141 3 3 0 0 1-1.586.457 3 3 0 0 1-1.588-.459 1 1 0 0 0-1.238.14L11.758 20.1a1 1 0 0 0-.227 1.066l3.535 9.193a1 1 0 0 0 1.867 0l3.536-9.193a1 1 0 0 0 .066-.393m-2.166-9.828-.572.573c-.585-.234-1.16-.517-1.795-.518H16c-.635 0-1.212.284-1.797.518l-.572-.573L16 4.787zm0 10.11-2.37 6.158-2.368-6.158.572-.573c.585.234 1.16.517 1.795.518H16c.635 0 1.212-.284 1.797-.518z"/>
  <circle r="3" cy="-16" cx="16" style="opacity:1;fill:#d3c6aa;fill-opacity:1;stroke:none;stroke-width:6;stroke-linecap:round;stroke-linejoin:round;stroke-miterlimit:4;stroke-dasharray:none;stroke-opacity:1;paint-order:stroke fill markers" transform="rotate(90)"/>
  <path style="opacity:1;fill:#272e33;fill-opacity:1;stroke:none;stroke-width:1.99273682;stroke-linecap:round;stroke-linejoin:round;stroke-miterlimit:4;stroke-dasharray:none;stroke-opacity:1;paint-order:stroke fill markers" d="M19.535 11.193 16 2l-3.535 9.193 1.416 1.416A4 4 0 0 1 16 12a4 4 0 0 1 2.117.611zm0 9.614L18.12 19.39A4 4 0 0 1 16 20a4 4 0 0 1-2.117-.611l-1.418 1.418L16 30Z"/>
  <circle style="opacity:1;fill:#7fbbb3;fill-opacity:1;stroke:none;stroke-width:4;stroke-linecap:round;stroke-linejoin:round;stroke-miterlimit:4;stroke-dasharray:none;stroke-opacity:1;paint-order:stroke fill markers" cx="16" cy="-16" r="2" transform="rotate(90)"/>
</svg>
